images/3235329.svg

<?xml version="1.0" encoding="UTF-8"?>
<svg xmlns="http://www.w3.org/2000/svg" xmlns:xlink="http://www.w3.org/1999/xlink" width="300pt" height="300pt" viewBox="0 0 300 300" version="1.1">
<defs>
<g>
<symbol overflow="visible" id="glyph0-0">
<path style="stroke:none;" d="M 0.75 2.65625 L 0.75 -10.578125 L 8.25 -10.578125 L 8.25 2.65625 Z M 1.59375 1.8125 L 7.40625 1.8125 L 7.40625 -9.734375 L 1.59375 -9.734375 Z M 1.59375 1.8125 "/>
</symbol>
<symbol overflow="visible" id="glyph0-1">
<path style="stroke:none;" d="M 1.46875 -10.9375 L 3.46875 -10.9375 L 8.3125 -1.78125 L 8.3125 -10.9375 L 9.75 -10.9375 L 9.75 0 L 7.75 0 L 2.90625 -9.140625 L 2.90625 0 L 1.46875 0 Z M 1.46875 -10.9375 "/>
</symbol>
</g>
</defs>
<g id="surface39789">
<rect x="0" y="0" width="300" height="300" style="fill:rgb(100%,100%,100%);fill-opacity:1;stroke:none;"/>
<path style="fill:none;stroke-width:1.2;stroke-linecap:butt;stroke-linejoin:miter;stroke:rgb(0%,0%,0%);stroke-opacity:1;stroke-miterlimit:10;" d="M 187.832031 252.957031 L 192.121094 235.796875 "/>
<path style="fill:none;stroke-width:1.2;stroke-linecap:butt;stroke-linejoin:miter;stroke:rgb(0%,0%,100%);stroke-opacity:1;stroke-miterlimit:10;" d="M 192.121094 235.796875 L 196.414062 218.636719 "/>
<path style="fill:none;stroke-width:1.2;stroke-linecap:butt;stroke-linejoin:miter;stroke:rgb(0%,0%,100%);stroke-opacity:1;stroke-miterlimit:10;" d="M 196.414062 218.636719 L 183.699219 206.34375 "/>
<path style="fill:none;stroke-width:1.2;stroke-linecap:butt;stroke-linejoin:miter;stroke:rgb(0%,0%,0%);stroke-opacity:1;stroke-miterlimit:10;" d="M 183.699219 206.34375 L 170.980469 194.046875 "/>
<path style="fill:none;stroke-width:1.2;stroke-linecap:butt;stroke-linejoin:miter;stroke:rgb(0%,0%,0%);stroke-opacity:1;stroke-miterlimit:10;" d="M 230.425781 208.910156 L 213.417969 213.773438 "/>
<path style="fill:none;stroke-width:1.2;stroke-linecap:butt;stroke-linejoin:miter;stroke:rgb(0%,0%,100%);stroke-opacity:1;stroke-miterlimit:10;" d="M 213.417969 213.773438 L 196.414062 218.636719 "/>
<path style=" stroke:none;fill-rule:nonzero;fill:rgb(100%,100%,100%);fill-opacity:1;" d="M 191.414062 209.636719 L 202.414062 209.636719 L 202.414062 227.636719 L 191.414062 227.636719 Z M 191.414062 209.636719 "/>
<g style="fill:rgb(0%,0%,100%);fill-opacity:1;">
  <use xlink:href="#glyph0-1" x="191.414062" y="223.250977"/>
</g>
<path style="fill:none;stroke-width:1.2;stroke-linecap:butt;stroke-linejoin:miter;stroke:rgb(0%,0%,0%);stroke-opacity:1;stroke-miterlimit:10;" d="M 170.980469 194.046875 L 179.5625 159.726562 "/>
<path style="fill:none;stroke-width:1.2;stroke-linecap:butt;stroke-linejoin:miter;stroke:rgb(0%,0%,0%);stroke-opacity:1;stroke-miterlimit:10;" d="M 179.5625 159.726562 L 196.570312 154.863281 "/>
<path style="fill:none;stroke-width:1.2;stroke-linecap:butt;stroke-linejoin:miter;stroke:rgb(0%,0%,100%);stroke-opacity:1;stroke-miterlimit:10;" d="M 196.570312 154.863281 L 213.574219 150 "/>
<path style="fill:none;stroke-width:1.2;stroke-linecap:butt;stroke-linejoin:miter;stroke:rgb(0%,0%,100%);stroke-opacity:1;stroke-miterlimit:10;" d="M 213.574219 150 L 226.289062 162.296875 "/>
<path style="fill:none;stroke-width:1.2;stroke-linecap:butt;stroke-linejoin:miter;stroke:rgb(0%,0%,0%);stroke-opacity:1;stroke-miterlimit:10;" d="M 226.289062 162.296875 L 239.003906 174.589844 "/>
<path style="fill:none;stroke-width:1.2;stroke-linecap:butt;stroke-linejoin:miter;stroke:rgb(0%,0%,100%);stroke-opacity:1;stroke-miterlimit:10;" d="M 213.574219 150 L 217.867188 132.839844 "/>
<path style="fill:none;stroke-width:1.2;stroke-linecap:butt;stroke-linejoin:miter;stroke:rgb(0%,0%,0%);stroke-opacity:1;stroke-miterlimit:10;" d="M 217.867188 132.839844 L 222.15625 115.679688 "/>
<path style=" stroke:none;fill-rule:nonzero;fill:rgb(100%,100%,100%);fill-opacity:1;" d="M 208.574219 141 L 219.574219 141 L 219.574219 159 L 208.574219 159 Z M 208.574219 141 "/>
<g style="fill:rgb(0%,0%,100%);fill-opacity:1;">
  <use xlink:href="#glyph0-1" x="208.574219" y="154.614258"/>
</g>
<path style="fill:none;stroke-width:1.2;stroke-linecap:butt;stroke-linejoin:miter;stroke:rgb(0%,0%,0%);stroke-opacity:1;stroke-miterlimit:10;" d="M 239.003906 174.589844 L 230.425781 208.910156 "/>
<path style="fill:none;stroke-width:1.2;stroke-linecap:butt;stroke-linejoin:miter;stroke:rgb(0%,0%,0%);stroke-opacity:1;stroke-miterlimit:10;" d="M 222.15625 115.679688 L 239.164062 110.816406 "/>
<path style="fill:none;stroke-width:1.2;stroke-linecap:butt;stroke-linejoin:miter;stroke:rgb(0%,0%,100%);stroke-opacity:1;stroke-miterlimit:10;" d="M 239.164062 110.816406 L 256.167969 105.953125 "/>
<path style="fill:none;stroke-width:1.2;stroke-linecap:butt;stroke-linejoin:miter;stroke:rgb(0%,0%,0%);stroke-opacity:1;stroke-miterlimit:10;" d="M 223.269531 106.707031 L 236.875 102.816406 "/>
<path style="fill:none;stroke-width:1.2;stroke-linecap:butt;stroke-linejoin:miter;stroke:rgb(0%,0%,100%);stroke-opacity:1;stroke-miterlimit:10;" d="M 236.875 102.816406 L 250.480469 98.921875 "/>
<path style="fill:none;stroke-width:1.2;stroke-linecap:butt;stroke-linejoin:miter;stroke:rgb(0%,0%,0%);stroke-opacity:1;stroke-miterlimit:10;" d="M 196.726562 91.089844 L 222.15625 115.679688 "/>
<path style="fill:none;stroke-width:1.2;stroke-linecap:butt;stroke-linejoin:miter;stroke:rgb(0%,0%,100%);stroke-opacity:1;stroke-miterlimit:10;" d="M 256.167969 105.953125 L 260.460938 88.792969 "/>
<path style="fill:none;stroke-width:1.2;stroke-linecap:butt;stroke-linejoin:miter;stroke:rgb(0%,0%,0%);stroke-opacity:1;stroke-miterlimit:10;" d="M 260.460938 88.792969 L 264.75 71.636719 "/>
<path style=" stroke:none;fill-rule:nonzero;fill:rgb(100%,100%,100%);fill-opacity:1;" d="M 251.167969 96.953125 L 262.167969 96.953125 L 262.167969 114.953125 L 251.167969 114.953125 Z M 251.167969 96.953125 "/>
<g style="fill:rgb(0%,0%,100%);fill-opacity:1;">
  <use xlink:href="#glyph0-1" x="251.167969" y="110.567383"/>
</g>
<path style="fill:none;stroke-width:1.2;stroke-linecap:butt;stroke-linejoin:miter;stroke:rgb(0%,0%,0%);stroke-opacity:1;stroke-miterlimit:10;" d="M 264.75 71.636719 L 252.035156 59.339844 "/>
<path style="fill:none;stroke-width:1.2;stroke-linecap:butt;stroke-linejoin:miter;stroke:rgb(0%,0%,100%);stroke-opacity:1;stroke-miterlimit:10;" d="M 252.035156 59.339844 L 239.320312 47.042969 "/>
<path style="fill:none;stroke-width:1.2;stroke-linecap:butt;stroke-linejoin:miter;stroke:rgb(0%,0%,0%);stroke-opacity:1;stroke-miterlimit:10;" d="M 256.421875 75.160156 L 246.25 65.324219 "/>
<path style="fill:none;stroke-width:1.2;stroke-linecap:butt;stroke-linejoin:miter;stroke:rgb(0%,0%,100%);stroke-opacity:1;stroke-miterlimit:10;" d="M 246.25 65.324219 L 236.078125 55.488281 "/>
<path style="fill:none;stroke-width:1.2;stroke-linecap:butt;stroke-linejoin:miter;stroke:rgb(0%,0%,100%);stroke-opacity:1;stroke-miterlimit:10;" d="M 239.320312 47.042969 L 222.3125 51.90625 "/>
<path style="fill:none;stroke-width:1.2;stroke-linecap:butt;stroke-linejoin:miter;stroke:rgb(0%,0%,0%);stroke-opacity:1;stroke-miterlimit:10;" d="M 222.3125 51.90625 L 205.308594 56.769531 "/>
<path style=" stroke:none;fill-rule:nonzero;fill:rgb(100%,100%,100%);fill-opacity:1;" d="M 234.320312 38.042969 L 245.320312 38.042969 L 245.320312 56.042969 L 234.320312 56.042969 Z M 234.320312 38.042969 "/>
<g style="fill:rgb(0%,0%,100%);fill-opacity:1;">
  <use xlink:href="#glyph0-1" x="234.320312" y="51.657227"/>
</g>
<path style="fill:none;stroke-width:1.2;stroke-linecap:butt;stroke-linejoin:miter;stroke:rgb(0%,0%,0%);stroke-opacity:1;stroke-miterlimit:10;" d="M 205.308594 56.769531 L 196.726562 91.089844 "/>
<path style="fill:none;stroke-width:1.2;stroke-linecap:butt;stroke-linejoin:miter;stroke:rgb(0%,0%,0%);stroke-opacity:1;stroke-miterlimit:10;" d="M 212.523438 62.222656 L 205.660156 89.675781 "/>
<path style="fill:none;stroke-width:1.2;stroke-linecap:butt;stroke-linejoin:miter;stroke:rgb(0%,0%,0%);stroke-opacity:1;stroke-miterlimit:10;" d="M 196.726562 91.089844 L 162.714844 100.816406 "/>
<path style="fill:none;stroke-width:1.2;stroke-linecap:butt;stroke-linejoin:miter;stroke:rgb(0%,0%,0%);stroke-opacity:1;stroke-miterlimit:10;" d="M 162.714844 100.816406 L 137.285156 76.226562 "/>
<path style="fill:none;stroke-width:1.2;stroke-linecap:butt;stroke-linejoin:miter;stroke:rgb(0%,0%,0%);stroke-opacity:1;stroke-miterlimit:10;" d="M 154.386719 104.34375 L 134.042969 84.667969 "/>
<path style="fill:none;stroke-width:1.2;stroke-linecap:butt;stroke-linejoin:miter;stroke:rgb(0%,0%,0%);stroke-opacity:1;stroke-miterlimit:10;" d="M 154.132812 135.136719 L 162.714844 100.816406 "/>
<path style="fill:none;stroke-width:1.2;stroke-linecap:butt;stroke-linejoin:miter;stroke:rgb(0%,0%,0%);stroke-opacity:1;stroke-miterlimit:10;" d="M 137.285156 76.226562 L 103.273438 85.953125 "/>
<path style="fill:none;stroke-width:1.2;stroke-linecap:butt;stroke-linejoin:miter;stroke:rgb(0%,0%,0%);stroke-opacity:1;stroke-miterlimit:10;" d="M 103.273438 85.953125 L 94.691406 120.273438 "/>
<path style="fill:none;stroke-width:1.2;stroke-linecap:butt;stroke-linejoin:miter;stroke:rgb(0%,0%,0%);stroke-opacity:1;stroke-miterlimit:10;" d="M 110.488281 91.40625 L 103.625 118.859375 "/>
<path style="fill:none;stroke-width:1.2;stroke-linecap:butt;stroke-linejoin:miter;stroke:rgb(0%,0%,0%);stroke-opacity:1;stroke-miterlimit:10;" d="M 94.691406 120.273438 L 120.121094 144.863281 "/>
<path style="fill:none;stroke-width:1.2;stroke-linecap:butt;stroke-linejoin:miter;stroke:rgb(0%,0%,0%);stroke-opacity:1;stroke-miterlimit:10;" d="M 94.691406 120.273438 L 77.6875 125.136719 "/>
<path style="fill:none;stroke-width:1.2;stroke-linecap:butt;stroke-linejoin:miter;stroke:rgb(0%,0%,100%);stroke-opacity:1;stroke-miterlimit:10;" d="M 77.6875 125.136719 L 60.679688 130 "/>
<path style="fill:none;stroke-width:1.2;stroke-linecap:butt;stroke-linejoin:miter;stroke:rgb(0%,0%,0%);stroke-opacity:1;stroke-miterlimit:10;" d="M 120.121094 144.863281 L 154.132812 135.136719 "/>
<path style="fill:none;stroke-width:1.2;stroke-linecap:butt;stroke-linejoin:miter;stroke:rgb(0%,0%,0%);stroke-opacity:1;stroke-miterlimit:10;" d="M 121.234375 135.886719 L 148.445312 128.105469 "/>
<path style="fill:none;stroke-width:1.2;stroke-linecap:butt;stroke-linejoin:miter;stroke:rgb(0%,0%,100%);stroke-opacity:1;stroke-miterlimit:10;" d="M 60.679688 130 L 47.964844 117.703125 "/>
<path style="fill:none;stroke-width:1.2;stroke-linecap:butt;stroke-linejoin:miter;stroke:rgb(0%,0%,0%);stroke-opacity:1;stroke-miterlimit:10;" d="M 47.964844 117.703125 L 35.25 105.410156 "/>
<path style="fill:none;stroke-width:1.2;stroke-linecap:butt;stroke-linejoin:miter;stroke:rgb(0%,0%,100%);stroke-opacity:1;stroke-miterlimit:10;" d="M 60.679688 130 L 56.390625 147.160156 "/>
<path style="fill:none;stroke-width:1.2;stroke-linecap:butt;stroke-linejoin:miter;stroke:rgb(0%,0%,0%);stroke-opacity:1;stroke-miterlimit:10;" d="M 56.390625 147.160156 L 52.097656 164.320312 "/>
<path style=" stroke:none;fill-rule:nonzero;fill:rgb(100%,100%,100%);fill-opacity:1;" d="M 55.679688 121 L 66.679688 121 L 66.679688 139 L 55.679688 139 Z M 55.679688 121 "/>
<g style="fill:rgb(0%,0%,100%);fill-opacity:1;">
  <use xlink:href="#glyph0-1" x="55.679688" y="134.614258"/>
</g>
</g>
</svg>

<svg xmlns="http://www.w3.org/2000/svg" xmlns:xlink="http://www.w3.org/1999/xlink" width="300pt" height="300pt" viewBox="0 0 300 300"><defs><symbol overflow="visible"><path d="M.75 2.656v-13.234h7.5V2.656zm.844-.844h5.812V-9.733H1.594zm0 0"/></symbol><symbol overflow="visible" id="a"><path d="M1.47-10.938h2L8.31-1.78v-9.158H9.75V0h-2L2.906-9.14V0H1.47zm0 0"/></symbol></defs><g><path fill="#fff" d="M0 0h300v300H0z"/><path d="M187.832 252.957l4.29-17.16" stroke-width="1.2" stroke="#000" stroke-miterlimit="10" fill="none"/><path d="M192.12 235.797l4.294-17.16M196.414 218.637L183.7 206.344" stroke-width="1.2" stroke="#00f" stroke-miterlimit="10" fill="none"/><path d="M183.7 206.344l-12.72-12.297M230.426 208.91l-17.008 4.863" stroke-width="1.2" stroke="#000" stroke-miterlimit="10" fill="none"/><path d="M213.418 213.773l-17.004 4.864" stroke-width="1.2" stroke="#00f" stroke-miterlimit="10" fill="none"/><path d="M191.414 209.637h11v18h-11zm0 0" fill="#fff"/><use xlink:href="#a" x="191.414" y="223.251" fill="#00f"/><path d="M170.98 194.047l8.583-34.32M179.563 159.727l17.007-4.864" stroke-width="1.2" stroke="#000" stroke-miterlimit="10" fill="none"/><path d="M196.57 154.863L213.574 150M213.574 150l12.715 12.297" stroke-width="1.2" stroke="#00f" stroke-miterlimit="10" fill="none"/><path d="M226.29 162.297l12.714 12.293" stroke-width="1.2" stroke="#000" stroke-miterlimit="10" fill="none"/><path d="M213.574 150l4.293-17.16" stroke-width="1.2" stroke="#00f" stroke-miterlimit="10" fill="none"/><path d="M217.867 132.84l4.29-17.16" stroke-width="1.2" stroke="#000" stroke-miterlimit="10" fill="none"/><path d="M208.574 141h11v18h-11zm0 0" fill="#fff"/><use xlink:href="#a" x="208.574" y="154.614" fill="#00f"/><path d="M239.004 174.59l-8.578 34.32M222.156 115.68l17.008-4.864" stroke-width="1.2" stroke="#000" stroke-miterlimit="10" fill="none"/><path d="M239.164 110.816l17.004-4.863" stroke-width="1.2" stroke="#00f" stroke-miterlimit="10" fill="none"/><path d="M223.27 106.707l13.605-3.89" stroke-width="1.2" stroke="#000" stroke-miterlimit="10" fill="none"/><path d="M236.875 102.816l13.605-3.894" stroke-width="1.2" stroke="#00f" stroke-miterlimit="10" fill="none"/><path d="M196.727 91.09l25.43 24.59" stroke-width="1.2" stroke="#000" stroke-miterlimit="10" fill="none"/><path d="M256.168 105.953l4.293-17.16" stroke-width="1.2" stroke="#00f" stroke-miterlimit="10" fill="none"/><path d="M260.46 88.793l4.29-17.156" stroke-width="1.2" stroke="#000" stroke-miterlimit="10" fill="none"/><path d="M251.168 96.953h11v18h-11zm0 0" fill="#fff"/><use xlink:href="#a" x="251.168" y="110.567" fill="#00f"/><path d="M264.75 71.637L252.035 59.34" stroke-width="1.2" stroke="#000" stroke-miterlimit="10" fill="none"/><path d="M252.035 59.34L239.32 47.043" stroke-width="1.2" stroke="#00f" stroke-miterlimit="10" fill="none"/><path d="M256.422 75.16l-10.172-9.836" stroke-width="1.2" stroke="#000" stroke-miterlimit="10" fill="none"/><path d="M246.25 65.324l-10.172-9.836M239.32 47.043l-17.007 4.863" stroke-width="1.2" stroke="#00f" stroke-miterlimit="10" fill="none"/><path d="M222.313 51.906L205.31 56.77" stroke-width="1.2" stroke="#000" stroke-miterlimit="10" fill="none"/><path d="M234.32 38.043h11v18h-11zm0 0" fill="#fff"/><use xlink:href="#a" x="234.32" y="51.657" fill="#00f"/><path d="M205.31 56.77l-8.583 34.32M212.523 62.223l-6.863 27.453M196.727 91.09l-34.012 9.726M162.715 100.816l-25.43-24.59M154.387 104.344l-20.344-19.676M154.133 135.137l8.582-34.32M137.285 76.227l-34.012 9.726M103.273 85.953l-8.582 34.32M110.488 91.406l-6.863 27.453M94.69 120.273l25.43 24.59M94.69 120.273l-17.002 4.864" stroke-width="1.2" stroke="#000" stroke-miterlimit="10" fill="none"/><path d="M77.688 125.137L60.68 130" stroke-width="1.2" stroke="#00f" stroke-miterlimit="10" fill="none"/><path d="M120.12 144.863l34.013-9.726M121.234 135.887l27.21-7.782" stroke-width="1.2" stroke="#000" stroke-miterlimit="10" fill="none"/><path d="M60.68 130l-12.715-12.297" stroke-width="1.2" stroke="#00f" stroke-miterlimit="10" fill="none"/><path d="M47.965 117.703L35.25 105.41" stroke-width="1.2" stroke="#000" stroke-miterlimit="10" fill="none"/><path d="M60.68 130l-4.29 17.16" stroke-width="1.2" stroke="#00f" stroke-miterlimit="10" fill="none"/><path d="M56.39 147.16L52.1 164.32" stroke-width="1.2" stroke="#000" stroke-miterlimit="10" fill="none"/><path d="M55.68 121h11v18h-11zm0 0" fill="#fff"/><use xlink:href="#a" x="55.68" y="134.614" fill="#00f"/></g></svg>
